svgs/light/paint-roller.svg

<svg xmlns="http://www.w3.org/2000/svg" viewBox="0 0 512 512"><!-- Font Awesome Pro 5.15.3 by @fontawesome - https://fontawesome.com License - https://fontawesome.com/license (Commercial License) --><path d="M464 64h-48V48c0-26.51-21.49-48-48-48H48C21.49 0 0 21.49 0 48v64c0 26.51 21.49 48 48 48h320c26.51 0 48-21.49 48-48V96h48c8.81 0 16 7.17 16 16v96c0 8.83-7.19 16-16 16H256c-26.47 0-48 21.53-48 48v48h-16c-17.67 0-32 14.33-32 32v128c0 17.67 14.33 32 32 32h64c17.67 0 32-14.33 32-32V352c0-17.67-14.33-32-32-32h-16v-48c0-8.83 7.19-16 16-16h208c26.47 0 48-21.53 48-48v-96c0-26.47-21.53-48-48-48zm-80 0v48c0 8.82-7.18 16-16 16H48c-8.82 0-16-7.18-16-16V48c0-8.82 7.18-16 16-16h320c8.82 0 16 7.18 16 16v16zM256 480h-64V352h64v128z"/></svg>

<svg xmlns="http://www.w3.org/2000/svg" viewBox="0 0 512 512"><!--! Font Awesome Pro 6.0.0-alpha3 by @fontawesome - https://fontawesome.com License - https://fontawesome.com/license (Commercial License) --><path d="M416 112v-64C416 21.5 394.5 0 368 0h-320C21.5 0 0 21.5 0 48v64C0 138.5 21.5 160 48 160h320C394.5 160 416 138.5 416 112zM32 112v-64C32 39.13 39.13 32 48 32h320C376.9 32 384 39.13 384 48v64C384 120.9 376.9 128 368 128h-320C39.13 128 32 120.9 32 112zM464 64C455.2 64 448 71.16 448 80S455.2 96 464 96C472.8 96 480 103.2 480 112v96C480 216.8 472.8 224 464 224H256C229.5 224 208 245.5 208 272V320C181.6 320 160 341.6 160 368v96C160 490.4 181.6 512 208 512h32c26.4 0 48-21.6 48-48v-96c0-26.4-21.6-48-48-48V272C240 263.2 247.2 256 256 256h208C490.5 256 512 234.5 512 208v-96C512 85.53 490.5 64 464 64zM256 368v96c0 8.836-7.164 16-16 16h-32C199.2 480 192 472.8 192 464v-96C192 359.2 199.2 352 208 352h32C248.8 352 256 359.2 256 368z"/></svg>
